src/assets/petitcode-transparent.svg

<?xml version="1.0" encoding="UTF-8"?>
<svg width="353px" height="413px" viewBox="0 0 353 413" version="1.1" xmlns="http://www.w3.org/2000/svg" xmlns:xlink="http://www.w3.org/1999/xlink">
    <!-- Generator: Sketch 53.2 (72643) - https://sketchapp.com -->
    <title>Group 16 Copy</title>
    <desc>Created with Sketch.</desc>
    <defs>
        <path d="M198.04688,0 C172.172606,0 146.625853,6.55718242 124.170714,18.9618744 C111.263352,26.092628 99.5023177,35.0170068 89.2151348,45.491972 L87.2996246,47.4460026 L89.2548345,49.3562863 L116.330025,75.8815231 L118.384484,77.8890223 L120.374431,75.8183331 C126.94473,68.9840866 134.497597,63.0004754 142.824608,58.047348 C159.463741,48.1994224 178.559294,42.988674 198.04688,42.988674 C257.080324,42.988674 305.107027,90.0312325 305.107027,147.854985 C305.107027,163.914978 301.494355,179.318767 294.358335,193.638603 C288.716016,205.007951 281.063901,215.210713 271.610411,223.969825 C270.414458,225.092664 269.302867,226.084261 268.211125,227.012669 C260.042913,233.968435 250.887172,239.66526 240.987061,243.94274 C237.364464,245.498188 233.851041,246.786292 230.253256,247.879966 C220.38292,250.932532 210.145362,252.546308 199.798629,252.677549 L199.704343,252.677549 L199.605093,252.68727 C199.163434,252.721296 198.701925,252.726157 198.250341,252.726157 L198.04688,252.726157 C197.302511,252.726157 196.563104,252.711574 195.84851,252.692131 L195.84851,84.6843825 L195.84851,81.9234636 L193.024869,81.9234636 L154.769253,81.9234636 L151.955537,81.9234636 L151.955537,84.6843825 L151.955537,113.29003 C151.623052,113.285169 151.285605,113.285169 150.95312,113.285169 C150.347699,113.285169 149.747241,113.29003 149.141821,113.299752 C148.556251,113.304612 147.97068,113.309473 147.38511,113.309473 C138.075532,113.54279 128.88009,114.587856 119.987359,116.425228 C113.362473,117.766802 106.732624,119.594452 100.286387,121.864433 C90.9023717,125.140594 81.7515925,129.398631 73.102022,134.521885 C62.9984501,140.495775 53.6590974,147.592503 45.3420117,155.6225 C41.7839267,159.015319 38.3102036,162.694924 35.034979,166.539795 C12.4458537,193.05045 0,226.648111 0,261.145015 C0,342.674756 67.7177511,409 150.95312,409 C176.484985,409 201.758802,402.598362 224.040254,390.480456 C236.744156,383.58788 248.400978,374.877375 258.693124,364.582259 L260.638409,362.633089 L258.668311,360.703362 L231.642745,334.226733 L229.618061,332.248399 L227.628114,334.251037 C220.998265,340.924878 213.529761,346.684894 205.431023,351.375539 C188.990388,360.951262 170.152884,366.011326 150.95312,366.011326 C91.9196764,366.011326 43.8929729,318.968767 43.8929729,261.145015 C43.8929729,245.114187 47.5106074,229.705537 54.6466272,215.361397 C60.105335,204.390633 67.3951911,194.528125 76.3127346,186.041216 C77.7965106,184.617009 79.2554743,183.290018 80.7987999,181.987331 C91.7658401,172.664369 104.261318,165.732907 117.937863,161.387376 C127.450901,158.349393 137.38575,156.652984 147.474434,156.346755 C148.63565,156.298147 149.791904,156.273843 150.95312,156.273843 C151.285605,156.273843 151.623052,156.278704 151.955537,156.288426 L151.955537,322.590043 L151.955537,325.350962 L154.769253,325.350962 L193.024869,325.350962 L195.84851,325.350962 L195.84851,322.590043 L195.84851,295.700248 C196.582954,295.70997 197.322361,295.714831 198.04688,295.714831 C198.67215,295.714831 199.322233,295.714831 199.947503,295.690527 C216.303777,295.510678 232.446664,292.740038 247.845183,287.466099 C256.330992,284.530193 264.588528,280.850588 272.399443,276.519639 C273.580508,275.858574 274.751649,275.178066 275.897978,274.502419 C285.465604,268.84934 294.437735,262.107448 302.556322,254.461453 C306.506441,250.772126 310.352349,246.737685 313.965021,242.484509 C336.559109,215.973854 349,182.371332 349,147.854985 C349,66.3252439 281.282249,0 198.04688,0" id="path-1"></path>
    </defs>
    <g id="petitcode-website-desktop" stroke="none" stroke-width="1" fill="none" fill-rule="evenodd" opacity="0.100000001">
        <g id="version01_MENUE" transform="translate(-207.000000, -306.000000)">
            <g id="Group-16-Copy" transform="translate(209.000000, 308.000000)">
                <g id="dominik-bednarz-1293554-unsplash">
                    <mask id="mask-2" fill="white">
                        <use xlink:href="#path-1"></use>
                    </mask>
                    <use id="Mask" stroke="#FFFFFF" stroke-width="4" xlink:href="#path-1"></use>
                </g>
            </g>
        </g>
    </g>
</svg>

<svg xmlns="http://www.w3.org/2000/svg" xmlns:xlink="http://www.w3.org/1999/xlink" width="353" height="413">
    <defs>
        <path id="a" d="M198.047 0c-25.874 0-51.421 6.557-73.876 18.962a151.909 151.909 0 0 0-34.956 26.53L87.3 47.446l1.955 1.91 27.075 26.526 2.054 2.007 1.99-2.07c6.57-6.835 14.124-12.819 22.45-17.772 16.64-9.848 35.735-15.058 55.223-15.058 59.033 0 107.06 47.042 107.06 104.866 0 16.06-3.613 31.464-10.749 45.784-5.642 11.369-13.294 21.572-22.748 30.33a91.967 91.967 0 0 1-3.399 3.044 108.028 108.028 0 0 1-27.224 16.93 102.591 102.591 0 0 1-10.734 3.937 107.598 107.598 0 0 1-30.454 4.798h-.095l-.099.01c-.442.033-.903.038-1.355.038h-.203a80.96 80.96 0 0 1-2.198-.034V81.924h-43.893v31.366c-.333-.005-.67-.005-1.003-.005-.605 0-1.206.005-1.811.015-.586.005-1.171.01-1.757.01-9.31.233-18.505 1.278-27.398 3.115a147.913 147.913 0 0 0-19.7 5.44 151.409 151.409 0 0 0-27.185 12.657c-10.104 5.974-19.443 13.07-27.76 21.1a145.71 145.71 0 0 0-10.307 10.918C12.445 193.05 0 226.648 0 261.145 0 342.675 67.718 409 150.953 409c25.532 0 50.806-6.402 73.087-18.52a150.41 150.41 0 0 0 34.653-25.898l1.945-1.949-1.97-1.93-27.025-26.476-2.025-1.979-1.99 2.003a106.639 106.639 0 0 1-22.197 17.125c-16.44 9.575-35.278 14.635-54.478 14.635-59.033 0-107.06-47.042-107.06-104.866 0-16.03 3.618-31.44 10.754-45.784 5.458-10.97 12.748-20.833 21.666-29.32a93.7 93.7 0 0 1 4.486-4.054c10.967-9.323 23.462-16.254 37.139-20.6a107.801 107.801 0 0 1 29.536-5.04 83.05 83.05 0 0 1 3.48-.073c.332 0 .67.005 1.002.014v169.063h43.893V295.7c.734.01 1.473.015 2.198.015.625 0 1.275 0 1.9-.024 16.357-.18 32.5-2.951 47.898-8.225A155.821 155.821 0 0 0 272.4 276.52a181.313 181.313 0 0 0 3.499-2.018 150.954 150.954 0 0 0 26.658-20.04c3.95-3.69 7.796-7.724 11.409-11.977C336.559 215.974 349 182.37 349 147.855 349 66.325 281.282 0 198.047 0"/>
    </defs>
    <use fill="none" fill-rule="evenodd" stroke="#FFF" stroke-width="4" opacity=".1" transform="translate(2 2)" xlink:href="#a"/>
</svg>
